X: 718
P: Longways for as many as will
M: 6/8
L: 1/16
K: G
V: 1
gd |\
c2dcBA B2cBAG | A3BA2 A2B2d2 | efg2G2 G2D2E2 | G3AG2 G4 :|
|:ef |\
g3ag2 g2d2B2 | a3ba2 Ta4g2 | efg2g2 g2d2B2 | g2agfe g2d2B2 |\
cBcdef g3fg2 | a2A2A2 A2B2d2 | efg2G2 G2D2E2 | G3AG2 G4 :|
V: 2 clef=bass middle=d
z2 |\
g6 G6 | f6 d6 | c4B2 B4A2 | G6 g6 |\
a2f2d2 g2e2c2 | f6 d6 | c4B2 B4A2 | G6 G4 :|
|: z2 |\
a4g2 b2a2g2 | f6 d6 | c4B2 B4A2 | G6 G4 :|

